assets/Singer/Medium-Light/Flat/singer_flat_medium-light.svg

<svg width="32" height="32" viewBox="0 0 32 32" fill="none" xmlns="http://www.w3.org/2000/svg">
<path d="M7.13679 20.9517C4.85271 22.9431 3.31411 25.7877 3 29H11V24.0554L7.13679 20.9517Z" fill="#433B6B"/>
<path d="M19 29H27C26.685 25.7934 25.1445 22.9494 22.8607 20.9569L19 24.0554V29Z" fill="#433B6B"/>
<path d="M14.5268 17C12.9732 17 11.4464 17.225 10 17.6485L11.4732 25.4176C12.4375 25.7882 13.4821 26 14.5804 26C15.6116 26 16.6027 25.8147 17.5134 25.4971L19 17.6618C17.5937 17.225 16.0804 17 14.5268 17Z" fill="#E4B29A"/>
<path d="M12.5 24L13.4867 29H16.5244L17.5 24.0527C16.7461 24.3165 15.9257 24.4536 15.0721 24.4536C14.1741 24.4641 13.2982 24.2954 12.5 24Z" fill="#E6E6E6"/>
<path d="M5.1719 16.8582L11 29H14L11.5 16.5H5.39728C5.21319 16.5 5.09224 16.6922 5.1719 16.8582Z" fill="#FF6723"/>
<path d="M24.828 16.8582L19 29H16L18.5 16.5H24.6027C24.7868 16.5 24.9077 16.6922 24.828 16.8582Z" fill="#FF6723"/>
<path d="M21.1886 6.79C20.8917 6.27 20.4265 5.91 19.9118 5.73C19.3477 5.54 18.8528 5.16 18.546 4.65C18.1303 3.96 17.3781 3.5 16.5269 3.5C16.2003 3.5 15.8836 3.57 15.6064 3.69C15.2204 3.86 14.7849 3.86 14.3989 3.69C14.1119 3.57 13.8051 3.5 13.4785 3.5C12.6372 3.5 11.8949 3.94 11.4792 4.61C11.1526 5.13 10.6676 5.53 10.0836 5.73C9.53927 5.92 9.06419 6.31 8.77716 6.86C8.35157 7.66 8.44064 8.62 8.92562 9.33C9.09388 9.59 9.19285 9.9 9.19285 10.21V14.38C9.19285 15.31 9.77681 16.13 10.6478 16.44L12.5184 17.09V9.67C12.6669 9.53 12.7856 9.36 12.8945 9.17C13.0628 8.88 13.1617 8.56 13.1914 8.25C13.2805 8.26 13.3795 8.27 13.4686 8.27C14.0525 8.27 14.587 8.06 14.9928 7.7C15.4085 8.05 15.933 8.27 16.517 8.27C16.616 8.27 16.705 8.26 16.7941 8.25C16.8337 8.57 16.9228 8.88 17.091 9.17C17.1999 9.36 17.3286 9.52 17.4672 9.67V17.1L19.3378 16.45C20.2088 16.15 20.7927 15.32 20.7927 14.39V10.22C20.7927 9.91 20.8917 9.6 21.0698 9.34C21.5845 8.6 21.6538 7.61 21.1886 6.79Z" fill="#FFF9BA"/>
<path d="M11.8058 12.0899C11.8058 13.0122 11.0657 13.7599 10.1529 13.7599C9.24002 13.7599 8.5 13.0122 8.5 12.0899C8.5 11.1676 9.24002 10.4199 10.1529 10.4199C11.0657 10.4199 11.8058 11.1676 11.8058 12.0899Z" fill="#E4B29A"/>
<path d="M21.4953 12.0899C21.4953 13.0122 20.7553 13.7599 19.8424 13.7599C18.9296 13.7599 18.1896 13.0122 18.1896 12.0899C18.1896 11.1676 18.9296 10.4199 19.8424 10.4199C20.7553 10.4199 21.4953 11.1676 21.4953 12.0899Z" fill="#E4B29A"/>
<path d="M9.8064 9.68812C9.88088 7.91802 11.3743 6.5 13.1987 6.5H14.4931C14.7719 6.5 15.0108 6.66585 15.1204 6.90976C15.5186 7.77805 16.4048 8.32439 17.3706 8.32439H18.7944C19.5909 8.36341 20.2182 9.01707 20.1983 9.80731L20.1864 10.3098L19.8796 15.1439C19.6108 17.0659 17.948 18.5 15.9666 18.5H14.0749C12.1034 18.5 10.4307 17.0659 10.1718 15.1439L9.8064 9.68812Z" fill="#EEBFAA"/>
<path d="M15.0031 15.2057C14.4582 15.2057 13.9437 15.0669 13.5098 14.8212C13.3585 14.7358 13.2071 14.9174 13.2979 15.0669C13.6612 15.6542 14.2867 16.0493 15.0031 16.0493C15.7194 16.0493 16.345 15.6542 16.7082 15.0669C16.799 14.9174 16.6376 14.7465 16.4963 14.8212C16.0524 15.0669 15.5479 15.2057 15.0031 15.2057Z" fill="#990838"/>
<path d="M14.7556 6.55214C14.6747 6.51847 14.5861 6.5 14.4931 6.5H13.1987C12.999 6.5 12.8032 6.517 12.6128 6.5496L10.4795 12.7818H12.297L11.8022 15.5L15.4282 10.3307H13.5387L14.7556 6.55214Z" fill="#F92F60"/>
<path d="M11.2218 11.78C11.3703 11.16 11.9245 10.7 12.5877 10.7C13.2805 10.7 13.8446 11.19 13.9733 11.85C14.003 12 13.8941 12.13 13.7457 12.13H11.489C11.3109 12.13 11.1723 11.95 11.2218 11.78Z" fill="white"/>
<path d="M18.7933 11.78C18.6449 11.16 18.0906 10.7 17.4275 10.7C16.7347 10.7 16.1705 11.19 16.0418 11.85C16.0121 12 16.121 12.13 16.2695 12.13H18.5261C18.7043 12.13 18.8329 11.96 18.7933 11.78Z" fill="white"/>
<path d="M11.8948 11.89C11.8948 11.39 12.3006 10.98 12.7954 10.98C13.3002 10.98 13.706 11.39 13.6961 11.89C13.6961 11.97 13.6862 12.05 13.6664 12.13H11.9245C11.9047 12.05 11.8948 11.97 11.8948 11.89Z" fill="#7D4533"/>
<path d="M18.1203 11.89C18.1203 11.39 17.7145 10.98 17.2196 10.98C16.7148 10.98 16.3189 11.39 16.3189 11.89C16.3189 11.97 16.3288 12.05 16.3486 12.13H18.0906C18.1104 12.05 18.1203 11.97 18.1203 11.89Z" fill="#7D4533"/>
<path d="M12.7954 11.3701C13.0825 11.3701 13.3101 11.6001 13.3101 11.8901C13.3101 11.9801 13.2903 12.0601 13.2507 12.1301H12.3401C12.3006 12.0601 12.2808 11.9801 12.2808 11.8901C12.2808 11.6001 12.5084 11.3701 12.7954 11.3701Z" fill="black"/>
<path d="M17.2196 11.3701C16.9326 11.3701 16.7049 11.6001 16.7049 11.8901C16.7049 11.9801 16.7247 12.0601 16.7643 12.1301H17.6749C17.7145 12.0601 17.7342 11.9801 17.7342 11.8901C17.7342 11.6001 17.5066 11.3701 17.2196 11.3701Z" fill="black"/>
<path d="M12.647 11.5199C12.647 11.6082 12.5761 11.6799 12.4887 11.6799C12.4012 11.6799 12.3303 11.6082 12.3303 11.5199C12.3303 11.4315 12.4012 11.3599 12.4887 11.3599C12.5761 11.3599 12.647 11.4315 12.647 11.5199Z" fill="white"/>
<path d="M17.1009 11.5199C17.1009 11.6082 17.03 11.6799 16.9426 11.6799C16.8551 11.6799 16.7842 11.6082 16.7842 11.5199C16.7842 11.4315 16.8551 11.3599 16.9426 11.3599C17.03 11.3599 17.1009 11.4315 17.1009 11.5199Z" fill="white"/>
<path d="M14.6602 11.7897L14.1696 13.5282C14.0677 13.884 14.3084 14.25 14.651 14.25H15.3731C15.7156 14.25 15.9563 13.884 15.8545 13.5282L15.3638 11.7897C15.262 11.4034 14.7713 11.4034 14.6602 11.7897Z" fill="#D19479"/>
<path d="M11.3852 9.92675C11.4312 9.95985 11.4863 9.9776 11.5428 9.97752C11.604 9.97719 11.6633 9.95605 11.7111 9.91752C12.1484 9.6244 12.6748 9.49852 13.1957 9.56252C13.2309 9.5671 13.2667 9.56448 13.3008 9.5548C13.335 9.54513 13.3669 9.5286 13.3946 9.5062C13.4223 9.4838 13.4453 9.456 13.4621 9.42444C13.479 9.39288 13.4894 9.35822 13.4927 9.32252C13.4999 9.25118 13.4792 9.17981 13.435 9.12372C13.3908 9.06763 13.3265 9.0313 13.2561 9.02252C12.5938 8.93577 11.9233 9.10156 11.3756 9.48752C11.331 9.52264 11.2985 9.57095 11.2824 9.6257C11.2664 9.68044 11.2676 9.73888 11.2861 9.79286C11.3045 9.84683 11.3391 9.89364 11.3852 9.92675Z" fill="#A56953"/>
<path d="M18.3147 9.92152C18.362 9.95778 18.4197 9.97745 18.479 9.97752C18.5356 9.97795 18.5918 9.96044 18.638 9.92746C18.6842 9.89449 18.7189 9.8477 18.7374 9.7937C18.7559 9.7397 18.7571 9.6812 18.7409 9.62645C18.7248 9.5717 18.692 9.52346 18.6473 9.48852C18.0989 9.10389 17.429 8.9379 16.7667 9.02252C16.697 9.03297 16.634 9.07045 16.5912 9.12703C16.5483 9.1836 16.5289 9.25482 16.5372 9.32557C16.5454 9.39632 16.5806 9.46105 16.6353 9.50603C16.69 9.55101 16.7598 9.57271 16.8301 9.56652C17.3511 9.50144 17.8779 9.62741 18.3147 9.92152Z" fill="#A56953"/>
<path d="M27 21C27.5514 21 28 21.4091 28 21.9119V24H26V21.9119C26 21.4091 26.4486 21 27 21Z" fill="#E4B29A"/>
<path d="M25.68 19.67C27.0386 19.67 28.14 18.5686 28.14 17.21C28.14 15.8514 27.0386 14.75 25.68 14.75C24.3213 14.75 23.22 15.8514 23.22 17.21C23.22 18.5686 24.3213 19.67 25.68 19.67Z" fill="#321B41"/>
<path d="M23.32 16.54L28.09 16.56C28.4 16.56 28.66 16.82 28.66 17.13C28.66 17.45 28.41 17.7 28.09 17.7L23.32 17.68C23 17.68 22.75 17.43 22.75 17.11C22.75 16.79 23 16.54 23.32 16.54Z" fill="#D3D3D3"/>
<path d="M24.87 25.5099C24.91 25.9099 25.24 26.2099 25.64 26.2099C26.03 26.2099 26.37 25.9199 26.42 25.5199L27.14 19.1899L24.21 19.1799L24.87 25.5099Z" fill="#D3D3D3"/>
<path d="M25.65 21.5701C25.9151 21.5701 26.13 21.3552 26.13 21.0901C26.13 20.825 25.9151 20.6101 25.65 20.6101C25.3849 20.6101 25.17 20.825 25.17 21.0901C25.17 21.3552 25.3849 21.5701 25.65 21.5701Z" fill="#F4F4F4"/>
<path d="M23.7849 23.0214C23.369 23.0214 23.0193 23.3843 23.0004 23.8434C22.991 24.153 23.1328 24.4306 23.3407 24.5801C23.1328 24.7295 23.0004 24.9964 23.0004 25.2954C23.0004 25.5943 23.1328 25.8505 23.3407 26.0107C23.1328 26.1601 23.0004 26.427 23.0004 26.726C23.0004 27.0249 23.1328 27.2811 23.3407 27.4413C23.1328 27.6014 22.991 27.8683 23.0004 28.1779C23.0099 28.6477 23.369 29 23.7849 29H27.1211C27.6031 29 28 28.5623 28 28.0071V23.9929C28 23.4484 27.6125 23 27.1211 23H23.7849V23.0214Z" fill="#EEBFAA"/>
</svg>

<svg xmlns="http://www.w3.org/2000/svg" width="32" height="32" fill="none"><path fill="#433B6B" d="M7.137 20.952A12.246 12.246 0 0 0 3 29h8v-4.945l-3.863-3.103ZM19 29h8a12.257 12.257 0 0 0-4.14-8.043L19 24.055V29Z"/><path fill="#E4B29A" d="M14.527 17c-1.554 0-3.08.225-4.527.648l1.473 7.77c.964.37 2.01.582 3.107.582a8.914 8.914 0 0 0 2.933-.503L19 17.662A15.107 15.107 0 0 0 14.527 17Z"/><path fill="#E6E6E6" d="m12.5 24 .987 5h3.037l.976-4.947a7.35 7.35 0 0 1-2.428.4A7.196 7.196 0 0 1 12.5 24Z"/><path fill="#FF6723" d="M5.172 16.858 11 29h3l-2.5-12.5H5.397a.25.25 0 0 0-.225.358ZM24.828 16.858 19 29h-3l2.5-12.5h6.103a.25.25 0 0 1 .225.358Z"/><path fill="#FFF9BA" d="M21.189 6.79a2.365 2.365 0 0 0-1.277-1.06 2.538 2.538 0 0 1-1.366-1.08 2.36 2.36 0 0 0-2.02-1.15c-.326 0-.642.07-.92.19-.386.17-.821.17-1.207 0a2.348 2.348 0 0 0-2.92.92c-.326.52-.811.92-1.395 1.12a2.34 2.34 0 0 0-1.307 1.13c-.425.8-.336 1.76.149 2.47.168.26.267.57.267.88v4.17c0 .93.584 1.75 1.455 2.06l1.87.65V9.67c.149-.14.268-.31.377-.5.168-.29.267-.61.296-.92a2.283 2.283 0 0 0 1.801-.55c.417.35.941.57 1.525.57.099 0 .188-.01.277-.02a2.392 2.392 0 0 0 .673 1.42v7.43l1.87-.65a2.174 2.174 0 0 0 1.456-2.06v-4.17c0-.31.099-.62.277-.88.514-.74.584-1.73.119-2.55Z"/><path fill="#E4B29A" d="M11.806 12.09c0 .922-.74 1.67-1.653 1.67A1.662 1.662 0 0 1 8.5 12.09c0-.922.74-1.67 1.653-1.67s1.653.748 1.653 1.67ZM21.495 12.09c0 .922-.74 1.67-1.653 1.67a1.661 1.661 0 0 1-1.652-1.67c0-.922.74-1.67 1.652-1.67.913 0 1.653.748 1.653 1.67Z"/><path fill="#EEBFAA" d="M9.806 9.688C9.881 7.918 11.374 6.5 13.2 6.5h1.294c.279 0 .518.166.627.41.399.868 1.285 1.414 2.25 1.414h1.424c.797.04 1.424.693 1.404 1.483l-.012.503-.306 4.834c-.27 1.922-1.932 3.356-3.913 3.356h-1.892c-1.972 0-3.644-1.434-3.903-3.356l-.366-5.456Z"/><path fill="#990838" d="M15.003 15.206c-.545 0-1.06-.14-1.493-.385-.152-.085-.303.096-.212.246.363.587.989.982 1.705.982.716 0 1.342-.395 1.705-.982.091-.15-.07-.32-.212-.246a3.06 3.06 0 0 1-1.493.385Z"/><path fill="#F92F60" d="M14.756 6.552a.681.681 0 0 0-.263-.052H13.2c-.2 0-.396.017-.586.05l-2.133 6.232h1.817l-.495 2.718 3.626-5.17h-1.89l1.218-3.778Z"/><path fill="#fff" d="M11.222 11.78a1.406 1.406 0 0 1 2.751.07.23.23 0 0 1-.227.28h-2.257a.28.28 0 0 1-.267-.35ZM18.793 11.78a1.405 1.405 0 0 0-2.751.07c-.03.15.079.28.227.28h2.257c.178 0 .307-.17.267-.35Z"/><path fill="#7D4533" d="M11.895 11.89c0-.5.406-.91.9-.91.505 0 .911.41.901.91 0 .08-.01.16-.03.24h-1.742a.996.996 0 0 1-.03-.24ZM18.12 11.89c0-.5-.405-.91-.9-.91-.505 0-.901.41-.901.91 0 .08.01.16.03.24h1.742c.02-.08.03-.16.03-.24Z"/><path fill="#000" d="M12.795 11.37c.287 0 .515.23.515.52 0 .09-.02.17-.06.24h-.91a.48.48 0 0 1-.06-.24c0-.29.228-.52.515-.52ZM17.22 11.37a.514.514 0 0 0-.515.52c0 .09.02.17.06.24h.91c.04-.07.06-.15.06-.24 0-.29-.228-.52-.515-.52Z"/><path fill="#fff" d="M12.647 11.52a.16.16 0 0 1-.158.16.16.16 0 0 1-.159-.16c0-.088.071-.16.159-.16a.16.16 0 0 1 .158.16ZM17.1 11.52a.16.16 0 0 1-.157.16.16.16 0 0 1-.159-.16c0-.088.071-.16.159-.16a.16.16 0 0 1 .158.16Z"/><path fill="#D19479" d="m14.66 11.79-.49 1.738c-.102.356.138.722.481.722h.722c.343 0 .583-.366.482-.722l-.491-1.738c-.102-.387-.593-.387-.704 0Z"/><path fill="#A56953" d="M11.385 9.927a.27.27 0 0 0 .326-.01 2.186 2.186 0 0 1 1.485-.354.262.262 0 0 0 .266-.139.276.276 0 0 0-.027-.3.27.27 0 0 0-.179-.101 2.663 2.663 0 0 0-1.88.465.274.274 0 0 0-.09.305c.019.054.053.1.1.134ZM18.315 9.922a.27.27 0 0 0 .323.005.273.273 0 0 0 .103-.3.273.273 0 0 0-.094-.138 2.682 2.682 0 0 0-1.88-.466.276.276 0 0 0-.131.484.27.27 0 0 0 .194.06 2.174 2.174 0 0 1 1.485.355Z"/><path fill="#E4B29A" d="M27 21c.551 0 1 .41 1 .912V24h-2v-2.088c0-.503.449-.912 1-.912Z"/><path fill="#321B41" d="M25.68 19.67a2.46 2.46 0 1 0 0-4.92 2.46 2.46 0 0 0 0 4.92Z"/><path fill="#D3D3D3" d="m23.32 16.54 4.77.02c.31 0 .57.26.57.57 0 .32-.25.57-.57.57l-4.77-.02c-.32 0-.57-.25-.57-.57 0-.32.25-.57.57-.57ZM24.87 25.51c.04.4.37.7.77.7.39 0 .73-.29.78-.69l.72-6.33-2.93-.01.66 6.33Z"/><path fill="#F4F4F4" d="M25.65 21.57a.48.48 0 1 0 0-.96.48.48 0 0 0 0 .96Z"/><path fill="#EEBFAA" d="M23.785 23.021c-.416 0-.766.363-.785.822-.009.31.133.588.34.737a.876.876 0 0 0-.34.715c0 .3.133.555.34.716a.876.876 0 0 0-.34.715c0 .299.133.555.34.715a.892.892 0 0 0-.34.737c.01.47.369.822.785.822h3.336c.482 0 .879-.438.879-.993v-4.014c0-.545-.387-.993-.879-.993h-3.336v.021Z"/></svg>
